src/assets/next.svg

<?xml version="1.0" encoding="utf-8"?>
<svg version="1.1" id="Capa_1" x="0px" y="0px" viewBox="0 0 477.175 477.175" style="enable-background:new 0 0 477.175 477.175;" xmlns="http://www.w3.org/2000/svg">
  <g>
    <path d="M 145.188 238.575 L 360.688 23.075 C 365.988 17.775 365.988 9.275 360.688 3.975 C 355.388 -1.325 346.888 -1.325 341.588 3.975 L 116.488 229.075 C 111.188 234.375 111.188 242.875 116.488 248.175 L 341.588 473.175 C 344.188 475.775 347.688 477.175 351.088 477.175 C 354.488 477.175 357.988 475.875 360.588 473.175 C 365.888 467.875 365.888 459.375 360.588 454.075 L 145.188 238.575 Z" style="fill: rgb(0, 123, 255);" transform="matrix(-1, 0, 0, -1, 477.175995, 477.174987)"/>
  </g>
  <g/>
  <g/>
  <g/>
  <g/>
  <g/>
  <g/>
  <g/>
  <g/>
  <g/>
  <g/>
  <g/>
  <g/>
  <g/>
  <g/>
  <g/>
</svg>

<?xml version="1.0" encoding="utf-8"?>
<svg version="1.1" id="Capa_1" x="0px" y="0px" viewBox="0 0 477.175 477.175" style="enable-background:new 0 0 477.175 477.175;" xmlns="http://www.w3.org/2000/svg">
  <g transform="matrix(-1, 0, 0, -1, 477.175934, 477.174957)">
    <path d="M145.188,238.575l215.5-215.5c5.3-5.3,5.3-13.8,0-19.1s-13.8-5.3-19.1,0l-225.1,225.1c-5.3,5.3-5.3,13.8,0,19.1l225.1,225 c2.6,2.6,6.1,4,9.5,4s6.9-1.3,9.5-4c5.3-5.3,5.3-13.8,0-19.1L145.188,238.575z" style="fill: rgb(139, 139, 139);"/>
  </g>
  <g/>
  <g/>
  <g/>
  <g/>
  <g/>
  <g/>
  <g/>
  <g/>
  <g/>
  <g/>
  <g/>
  <g/>
  <g/>
  <g/>
  <g/>
</svg>
